wordpress/wp-content/themes/bluearrow-2017/assets/images/logo-futurice.svg

<?xml version="1.0" encoding="UTF-8"?>
<svg width="106px" height="26px" viewBox="0 0 106 26" version="1.1" xmlns="http://www.w3.org/2000/svg" xmlns:xlink="http://www.w3.org/1999/xlink">
    <!-- Generator: Sketch 41.2 (35397) - http://www.bohemiancoding.com/sketch -->
    <title>logo-futurice</title>
    <desc>Created with Sketch.</desc>
    <defs></defs>
    <g id="export" stroke="none" stroke-width="1" fill="none" fill-rule="evenodd">
        <g id="logo-futurice" fill="#FFFFFF">
            <path d="M24.29,8 L24.29,15.48 C24.29,17.32 23.45,18.39 21.76,18.39 C20.07,18.39 19.23,17.31 19.23,15.48 L19.23,8 L15.39,8 L15.39,16.44 C15.39,20 18.04,22.11 21.8,22.11 C25.56,22.11 28.2,19.99 28.2,16.44 L28.2,8 L24.29,8 Z" id="Shape"></path>
            <path d="M97.41,17.8314496 C96.7158409,18.6325217 95.70997,19.0953681 94.65,19.1014496 L94.65,19.1014496 C92.9758405,19.2478316 91.4328252,18.1870085 90.97,16.5714496 L101.64,16.5714496 L101.64,15.1814496 C101.689579,13.2694045 100.954598,11.420347 99.6059063,10.0640999 C98.2572149,8.70785288 96.4122922,7.96255318 94.5,8.00144961 C92.5843231,7.99879079 90.7463426,8.75861333 89.3917532,10.1132028 C88.0371637,11.4677922 87.2773412,13.3057727 87.28,15.2214496 C87.2407881,17.1603098 87.9985854,19.0303867 89.3764462,20.395017 C90.7543071,21.7596474 92.6316084,22.4993664 94.57,22.4414496 L94.65,22.4414496 C96.606869,22.4899679 98.4965014,21.726151 99.87,20.3314496 L97.41,17.8314496 Z M94.5,11.3414496 C95.9721013,11.2162601 97.3375427,12.118279 97.8,13.5214496 L91.07,13.5214496 C91.6519301,12.1641404 93.003787,11.2999034 94.48,11.3414496 L94.5,11.3414496 Z" id="Shape"></path>
            <path d="M84.07,17.8220795 C83.4090891,18.4593293 82.5280791,18.8174635 81.61,18.8220795 L81.53,18.8220795 C79.6127214,18.7210651 78.1099342,17.1370173 78.1099342,15.2170795 C78.1099342,13.2971416 79.6127214,11.7130938 81.53,11.6120795 L81.61,11.6120795 C82.5898791,11.6187472 83.5220886,12.0358838 84.18,12.7620795 L86.79,10.1520795 C85.4289503,8.7344322 83.5346601,7.95421691 81.57,8.00207945 L81.57,8.00207945 C77.7115335,8.1461514 74.6579086,11.3159242 74.6579086,15.1770795 C74.6579086,19.0382347 77.7115335,22.2080075 81.57,22.3520795 L81.57,22.3520795 C83.4567821,22.3755245 85.2773645,21.657346 86.64,20.3520795 L84.07,17.8220795 Z" id="Shape"></path>
            <path d="M7.95,7.0525492 C7.88946313,6.52049704 8.06117011,5.98816621 8.42118565,5.59176612 C8.78120119,5.19536603 9.29459384,4.97335843 9.83,4.9825492 C10.4297221,4.98118032 10.9898166,5.2819022 11.32,5.7825492 L13.62,3.4825492 C12.6567033,2.07028312 11.0386445,1.2480528 9.33,1.3025492 C6.53,1.3025492 4.22,3.7625492 4.15,7.0125492 L4.15,21.8225492 L7.95,21.8225492 L7.95,11.2625492 L12.86,11.2625492 L12.86,7.9825492 L7.95,7.9825492 L7.95,7.0525492 Z" id="Shape"></path>
            <path d="M50.95,8 L50.95,15.48 C50.95,17.32 50.11,18.39 48.42,18.39 C46.73,18.39 45.89,17.31 45.89,15.48 L45.89,8 L42.07,8 L42.07,16.44 C42.07,20 44.72,22.11 48.48,22.11 C52.24,22.11 54.89,20 54.89,16.44 L54.89,8 L50.95,8 Z" id="Shape"></path>
            <rect id="Rectangle-path" x="68.68" y="7.98999995" width="3.79" height="13.84"></rect>
            <path d="M70.52,1.29999995 C71.8565291,1.29999995 72.94,2.38347086 72.94,3.71999995 C72.94,5.05652905 71.8565291,6.13999995 70.52,6.13999995 C69.1834709,6.13999995 68.1,5.05652905 68.1,3.71999995 C68.1,2.38347086 69.1834709,1.29999995 70.52,1.29999995" id="Shape"></path>
            <polygon id="Shape" points="57.17 8 57.17 12.16 57.17 21.85 60.97 21.85 60.97 11.41 66.27 11.41 66.27 8 60.97 8"></polygon>
            <path d="M34.31,8.18 L34.31,3 L30.51,3 L30.51,16 C30.51,20.53 31.97,22 36.34,22 L39.6,22 L39.6,18.47 L36.88,18.47 C34.54,18.47 34.27,18.13 34.27,15.97 L34.27,11.6 L39.6,11.6 L39.6,8.18 L34.31,8.18" id="Shape"></path>
        </g>
    </g>
</svg>

<svg width="106" height="26" viewBox="0 0 106 26" xmlns="http://www.w3.org/2000/svg"><title>logo-futurice</title><g fill="#FFF" fill-rule="evenodd"><path d="M24.29 8v7.48c0 1.84-.84 2.91-2.53 2.91s-2.53-1.08-2.53-2.91V8h-3.84v8.44c0 3.56 2.65 5.67 6.41 5.67 3.76 0 6.4-2.12 6.4-5.67V8h-3.91zM97.41 17.831a3.68 3.68 0 0 1-2.76 1.27 3.51 3.51 0 0 1-3.68-2.53h10.67v-1.39a7 7 0 0 0-7.14-7.18 7.21 7.21 0 0 0-7.22 7.22 7.08 7.08 0 0 0 7.29 7.22h.08a7.08 7.08 0 0 0 5.22-2.11l-2.46-2.5zm-2.91-6.49a3.19 3.19 0 0 1 3.3 2.18h-6.73a3.6 3.6 0 0 1 3.41-2.18h.02zM84.07 17.822a3.57 3.57 0 0 1-2.46 1h-.08a3.61 3.61 0 0 1 0-7.21h.08a3.5 3.5 0 0 1 2.57 1.15l2.61-2.61a7 7 0 0 0-5.22-2.15 7.18 7.18 0 0 0 0 14.35 7.2 7.2 0 0 0 5.07-2l-2.57-2.53zM7.95 7.053a1.86 1.86 0 0 1 1.88-2.07c.6-.002 1.16.299 1.49.8l2.3-2.3a5 5 0 0 0-4.29-2.18c-2.8 0-5.11 2.46-5.18 5.71v14.81h3.8v-10.56h4.91v-3.28H7.95v-.93zM50.95 8v7.48c0 1.84-.84 2.91-2.53 2.91s-2.53-1.08-2.53-2.91V8h-3.82v8.44c0 3.56 2.65 5.67 6.41 5.67 3.76 0 6.41-2.11 6.41-5.67V8h-3.94zM68.68 7.99h3.79v13.84h-3.79zM70.52 1.3a2.42 2.42 0 1 1 0 4.84 2.42 2.42 0 0 1 0-4.84M57.17 8v13.85h3.8V11.41h5.3V8h-5.3zM34.31 8.18V3h-3.8v13c0 4.53 1.46 6 5.83 6h3.26v-3.53h-2.72c-2.34 0-2.61-.34-2.61-2.5V11.6h5.33V8.18h-5.29"/></g></svg>
